X:1
T:RVW2/1/104 Outlandish Knight
T:RVW2/1/104 Outlandish Knight
T:Transcribed by Simon Furey and Lewis Jones Sung by Burrage - 'Rushills', Capel, Surrey, April/August 1908 [1 of 5]
C:Transcribed by Simon Furey and Lewis Jones
C:Sung by Burrage - 'Rushills', Capel, Surrey, April/August 1908 [1 of 5]
L:1/8
Q:1/4=80
M:6/8
K:A
V:1 treble 
V:1
"^Editorial suggestion" E | EFG ABc | BAF E2 E | A2 A edc |[M:3/8] B2 A |[M:6/8] Bcd edc | %6
 BGE AGA |[M:3/8]"^(a)" B2 A |[M:6/8] Bcd BAF | E3- E2 || E | EFG ABc | BAF E2 E | A2 A edc | %14
[M:3/8] B2 A |[M:6/8] Bcd edc | BGE AG"^var. (a)"A | Bcd BAF | E3- E2 |] x6 | %20

